X:1
T:Torna indietro
T:Torna indietro
T:Loreto Vittori
T:Source : Arie a voce sola del Cavalier Loreto Vittorii---Venetia---A.Vincenti---1649. Editor : André Vierendeels (15/10/15).
T:Notes : Original clefs : C1, F4 Figures in BC are notated in original print
C:Vittorius Loreto
%%score 1 2
L:1/8
Q:1/4=100
M:6/4
K:F
V:1 treble nm="Soprano" snm="S"
V:2 bass nm="BC" snm="BC"
V:1
 z2 B2 G2 d3 c de | f2 f2 g2 f4 _e2 | d4 d2 z2 f2 g2 | _e4 d2 d4 c2 | d4 d2 z2 d2 _e2 | %5
w: Tor- na'in- die- * * *|* tro,- o pen- sier|mi- o, di vo-|lar tropp' al- to'a|spa- ri do- ve|
w: L'em- pio'a- mor _ _ _|_ su l'a- li à|vo- lo, er- ge'un|cor che s"in- a-|mo- ra la bre-|
 c4 c2 z2 d2 c2 | BA Bc de f4 G2 | G4 A2 F4 F2 | z2 B2 A2 G4 G2 | z2 A2 G2 ^FA Bc dA | %10
w: mi- ri, non ti|por- * * * * * ti un|van de- si- o,|do- ve mi- ri|non ti por- * ti _ un _|
w: v'ho- ra, gli fa|tom- * * * * * ba un|mar di duo- lo,-|la brev' ho- ra,|gli fa tom- * * * * *|
 B^F GA BF GB cd _eB | c2 A2 B2 B2 A4 |[M:3/4] G6 ::[M:6/4] z2 B2 B2 AB AG FE | D4 E2 F3 G A2 | %15
w: van _ _ _ _ _ _ _ _ _ _ _|_ de- * si- *|o.|Se t'al- le- * * * * *|t'al- ma sem- * *|
w: |* ba'un mar di duo-|lo.|Pen- sier mi- * * * * *|* o non- * *|
 A2 A2 G2 F2 A2 B2 | c2 c4 d2 de fg | e2 f2 e2 d2 e2 d2 | ^c2 e6 f2 g2 | f2 e4 d6 | %20
w: bi- an- * za che nel|cor fis- sa mi _ _ _|sta gran bel- ta tron- ca'il|vo- lo'al- la spe-|ran- * za,|
w: vo- lar _ tan- to il|go- der non è _ _ _|per _ _ _ _ _|te, cre- * *|di à me,|
 z2 d2 d2 cd cB AG | A4 B2 c3 d e2 | e2 d4 c2 _e2 e2 | d2 f6 c3 d | B2 d6 c4 | =B2 d3 e f3 _e e2 | %26
w: se t'al- le- * * * * *|t'al- ma sem- * *|bian- * za che nel|cor fis- sa mi|sta gran bel-|ta, tron- ca'il vo- lo'al- la|
w: pen- sier mi- * * * * *|* o non vo- lar|tan- to- il go- der|non è per te|cre- di à|me, da- va'il no- me'a un|
 d_e d4 c6 | d6 c6 | B6 A6 | A4 A4 A4 | !fermata!G12 :| %31
w: spe- * ran- za,|tron- ca'il|vol- to'al-|la spe- ran-|za.|
w: mar di pian- te,|da- va'il|no- me'a'un|mar di pian-|te.|
V:2
 G,,6 G,6 | D,4 _E,2 F,2 G,2 A,2 |"^6" B,6 A,6 |"^7  6" G,4 F,2 _E,6 |"^6" D,6 =B,,6 | %5
 C,4 A,,4 B,,2 A,,2 | G,,6 F,,2 B,,4 | C,6 F,,6 |"^6" D,6 _E,4 D,2 |"^6" C,6 D,4 ^F,2 | %10
"^b" G,4 F,2 _E,4 D,2 |"^4   3" C,4 G,,2 D,6 |[M:3/4] G,,6 ::[M:6/4]"^-natural" G,,6 A,,6 | %14
"^6" B,,4 C,2 D,2 B,,4 |"^4   3" C,6 F,,2 F,4 |"^6""^#""^6" E,6 D,6 |"^6""^6" C,2 A,,4 B,,2 G,,4 | %18
"^#" A,,4 F,,4 G,,4 |"^4  3" A,,6 D,,6 |"^6" D,6 E,6 | F,4 G,2 A,2 F,4 |"^4  3" G,6 C,6 | %23
"^4   3" D,4 _E,2 F,6 | B,,2 B,6 A,4 |"^-natural" G,6 _A,4 F,2- |"^4  3" F,2 G,4 C,6 | %27
 B,,2 D,2 E,2 F,2 G,2 A,2 | G,2 F,2 G,2 _E,2 D,2 C,2 |"^4  3" D,4 B,,2 C,2 D,4 | !fermata!G,,12 :| %31

